X: 10781
M: C|
L: 1/16
K: D
ud2 |\
dd3 (f2ga) (d2a2)f2a2 | (.=c3.g)(e3f) ~g4(g2ab) |\
a2d2f2d2 a2d2g2b2 | a2d2f2d2 (fga2) (a2f2) |
dd3 (f2ga) (d3a)f3a | gfed =c2e2 g4(g2ag) |\
(f3a)(e3f) (d3f)(B3d) | AF3 (d3F) A4A2 |]
uc2 |\
dcBA GFED dcBA GFED | E=C3c3E {F}G4(G2E2) |\
uf2) |\
d2d2 (f2ga) (d2a2)f2a2 | =c2g2e2f2 ~g4(g2ab) |\
a2d2f2d2 a2d2b2d2 | a2d2f2d2 (f2ga) (a2f2) |
dd3 (f2ga) (d2a2)f2a2 | gfed =c2e2 g4(g2ag) |\
f2a2e2f2 d2f2B2d2 | (.A3.F)(.d3.F) "_Segue Reel."{F}A4A2 "^D.C."|]


